X:10128
T:Maiden Fair. JWDM.16
M:2/2
L:1/4
S:J.Winder MS,Wyresdale,Lancs.,1789
R:Air
O:England
A:Lancashire
Z:vmp.Taz Tarry
K:D
fff2|efd2|eeef|e2d2:||:Bcd2|efd2|eeef|e2d2:|]
